X: 274
T: Morning Star
R: reel
M: 4/4
L: 1/8
K:Em
"Em"B2BA BGEF|"G"G2Bd efgd|"Em"B2BA BGEF|"G"GBAF G3A:|
"Em"Bdef "G"g2eg|"D"fedf "Em"edBA|"Em"Bdef "G"g2eg|"D"fedf "Em"e3d|
"Em"Bdef "G"g2eg|"D"fedf "Em"edBA|"G"Bdd^c "D"d2ef|"G"g2af gedc|]


